X:245
T:the Sow's tail to Geordie
A:Wyresdale, Lancashire
B:H.S.J. Jackson, 1823
L:1/8
M:2/4
O:England
Z:Richard Robinson 
%%TranscriptionNotes:Some guesswork here owing to imperfect legibility
%%TUNEURL: http://www.leeds.ac.uk/music/Info/RRTuneBk/gettune/000005e6.html
%%ID:000005e6
K:D
A>BAF    | EFGE | A>BAF | ABde | \
fg f/g/a/z/ | EFGE | D/E/F/G/ AE | TF2 D2 ::
a>baf | efge | abaf | defd |\
ga/g/ fg/f/ | ef/d/ d/c/B/A/ | d/e/f/g/ a/g/f/e/ | f2 d2 ::
d>BAF | EFGE | d>BAF | A>Bde |\
e/d/c/B/ B/A/G/F/ | E>FGE | D/E/F/G/ AE | TF2 D2 ::
a>fdf | e>f a/g/f/e/ | a>fdf | a>baf |\
gb/g/ fa/f/ | g/f/e/d/ c/d/e/c/ | d/e/f/g/ ae | Tf2 d2 ::
%page:31
